app/assets/images/heroicons/solid/bold.svg

<svg width="24" height="24" viewBox="0 0 24 24" fill="none" xmlns="http://www.w3.org/2000/svg">
<path fill-rule="evenodd" clip-rule="evenodd" d="M5.24609 3.74418C5.24609 3.32994 5.58189 2.99414 5.99611 2.99414H13.121C15.8134 2.99414 17.9959 5.17701 17.9959 7.86958C17.9959 9.26677 17.4082 10.5267 16.4666 11.4156C17.8432 12.3622 18.7459 13.9483 18.7459 15.7453C18.7459 18.645 16.3955 20.9958 13.496 20.9958H5.99611C5.58189 20.9958 5.24609 20.66 5.24609 20.2458V3.74418ZM12.371 10.4949C13.8206 10.4949 14.9959 9.31954 14.9959 7.86958C14.9959 6.41961 13.8206 5.24429 12.371 5.24429H8.2461V10.4949H12.371ZM8.2461 12.745V18.7457H12.746C14.4027 18.7457 15.7459 17.4024 15.7459 15.7453C15.7459 14.0882 14.4027 12.745 12.746 12.745H8.2461Z" fill="black"/>
</svg>

<svg xmlns="http://www.w3.org/2000/svg" viewBox="0 0 24 24" fill="currentColor" aria-hidden="true" data-slot="icon">
  <path fill-rule="evenodd" d="M5.246 3.744a.75.75 0 0 1 .75-.75h7.125a4.875 4.875 0 0 1 3.346 8.422 5.25 5.25 0 0 1-2.97 9.58h-7.5a.75.75 0 0 1-.75-.75V3.744Zm7.125 6.75a2.625 2.625 0 0 0 0-5.25H8.246v5.25h4.125Zm-4.125 2.251v6h4.5a3 3 0 0 0 0-6h-4.5Z" clip-rule="evenodd"/>
</svg>
